assets/img/templates/pieprogress/circle2.svg

<svg height="120" viewBox="0 0 105 120" width="105" xmlns="http://www.w3.org/2000/svg" xmlns:xlink="http://www.w3.org/1999/xlink"><defs><ellipse id="a" cx="36.5" cy="45" rx="36.5" ry="37"/><filter id="b" height="221.6%" width="216.4%" x="-58.2%" y="-30.4%"><feMorphology in="SourceAlpha" operator="erode" radius="5" result="shadowSpreadOuter1"/><feOffset dx="0" dy="25" in="shadowSpreadOuter1" result="shadowOffsetOuter1"/><feGaussianBlur in="shadowOffsetOuter1" result="shadowBlurOuter1" stdDeviation="15"/><feColorMatrix in="shadowBlurOuter1" type="matrix" values="0 0 0 0 0.768627451   0 0 0 0 0.682352941   0 0 0 0 0.890196078  0 0 0 1 0"/></filter><linearGradient id="c" x1="50%" x2="50%" y1="0%" y2="100%"><stop offset="0" stop-color="#702dfe"/><stop offset="1" stop-color="#ef8877"/></linearGradient></defs><g fill="none" fill-rule="evenodd"><path d="m0 0h105v120h-105z" fill="#fff"/><path d="m0 0h105v120h-105z" fill="#fff"/><g transform="translate(12 16)"><use fill="#000" filter="url(#b)" xlink:href="#a"/><use fill="#e8ecf0" fill-rule="evenodd" xlink:href="#a"/><g fill-rule="nonzero"><path d="m35.1884817 0c25.2981277 0 45.8115183 20.1441557 45.8115183 44.999909 0 24.8557822-20.5134202 45.000091-45.8115183 45.000091-2.3132346 0-4.1884817-1.8473065-4.1884817-4.1260745 0-2.2516398 1.8308641-4.0820299 4.1060548-4.1252915l.0824269-.000783c20.6775176 0 37.4345549-16.455517 37.4345549-36.747942 0-20.0894608-16.4235319-36.4182688-36.8154172-36.74283601l-.6191377-.00492399c-2.3132346 0-4.1884817-1.84730648-4.1884817-4.1260745s1.8752471-4.1260745 4.1884817-4.1260745z" fill="url(#c)"/><path d="m25.8967021 55c.7956755 0 1.4859635-.1506346 2.070864-.4519038s1.0341146-.7250056 1.3476424-1.2712091.4702916-1.1646627.4702916-1.8553774c0-1.1364952-.310893-2.0207081-.9326792-2.6526386-.6217861-.6319306-1.4806941-.9478958-2.5767239-.9478958-.6112474 0-1.1882438.1347139-1.7309893.4041416l.2845462-2.2999332h4.5764513v-1.7708751h-6.4497138l-.6639411 5.4375418 1.817934.4188376.2213137-.1910487c.3372399-.2645291.7772327-.3967936 1.3199782-.3967936.5901699 0 1.0459708.1616566 1.3674026.4849699s.4821477.7886885.4821477 1.3961256c0 .6319305-.1396384 1.1205745-.4189152 1.4659319-.2792769.3453574-.6771146.5180361-1.1935133.5180361-.4637049 0-.8391478-.1236919-1.1263287-.3710755-.2871808-.2473837-.4544835-.5939657-.5019078-1.0397462h-2.2605615c.0210775.6074371.2041882 1.1487419.5493322 1.6239145s.8154357.8437987 1.4108749 1.1058784c.5954393.2620797 1.2409376.3931196 1.936495.3931196zm8.7181793-.1469606 4.4499864-9.50835v-1.1903808h-8.1253748v1.7194389h5.7225403l-4.4578905 8.9792919zm8.3862088-5.8784235c.7429818 0 1.3436904-.2008461 1.8021259-.6025384.4584356-.4016923.6876533-.9331997.6876533-1.5945224v-.5290581c0-.6907148-.2292177-1.238143-.6876533-1.6422846-.4584355-.4041416-1.0644135-.6062124-1.817934-.6062124-.7429817 0-1.3436904.2045202-1.8021259.6135605-.4584356.4090403-.6876533.9417724-.6876533 1.5981963v.5217101c0 .6858161.2305351 1.230795.6916053 1.6349366s1.0657309.6062124 1.813982.6062124zm.4505315 5.0774883 5.6197874-8.3620574-1.1144726-.5584503-5.6197874 8.3620575zm-.4505315-6.2972612c-.2950849 0-.5335241-.089401-.7153175-.2682031-.1817934-.178802-.2726901-.4151636-.2726901-.7090848v-.5364061c0-.3184146.0895793-.567023.2687381-.745825.1791587-.1788021.4136458-.2682031.7034614-.2682031.3056237 0 .5453802.0906257.7192695.2718771.1738894.1812514.2608341.4188377.2608341.7127588v.5437542c0 .3037186-.0869447.5462035-.2608341.7274549-.1738893.1812514-.4083764.2718771-.7034614.2718771zm5.5091306 7.245157c.7535205 0 1.3568638-.2020708 1.8100299-.6062124.4531662-.4041416.6797493-.9344244.6797493-1.5908484v-.5290581c0-.7005121-.2305351-1.2503897-.6916053-1.6496326-.4610703-.3992429-1.0657309-.5988644-1.8139821-.5988644-.7377123 0-1.338421.2020708-1.8021259.6062124s-.6955573.9368738-.6955573 1.5981964v.5437542c0 .67112.2292177 1.2099755.6876533 1.6165665.4584355.4065909 1.0670482.6098864 1.8258381.6098864zm0-1.2197729c-.2845462 0-.5216681-.0955244-.7113655-.2865731-.1896975-.1910488-.2845462-.421287-.2845462-.6907148v-.5511022c0-.3086172.0895793-.5523269.2687381-.7311289.1791587-.1788021.4162805-.2682031.7113654-.2682031.295085 0 .5322068.089401.7113655.2682031.1791588.178802.2687381.4151636.2687381.7090848v.5584503c0 .6613226-.3214318.9919839-.9642954.9919839z" fill="#304254"/></g></g><text fill="#798999" font-family="IBMPlexSerif-Medium, IBM Plex Serif" font-size="7" font-weight="400"><tspan x="40.3385" y="54">Goal</tspan></text></g></svg>

<?xml version="1.0" encoding="UTF-8"?>
<svg width="105px" height="120px" viewBox="0 0 105 120" version="1.1" xmlns="http://www.w3.org/2000/svg" xmlns:xlink="http://www.w3.org/1999/xlink">
    <!-- Generator: Sketch 61.1 (89650) - https://sketch.com -->
    <title>circle2</title>
    <desc>Created with Sketch.</desc>
    <defs>
        <ellipse id="path-1" cx="36.5" cy="45" rx="36.5" ry="37"></ellipse>
        <filter x="-58.2%" y="-30.4%" width="216.4%" height="221.6%" filterUnits="objectBoundingBox" id="filter-2">
            <feMorphology radius="5" operator="erode" in="SourceAlpha" result="shadowSpreadOuter1"></feMorphology>
            <feOffset dx="0" dy="25" in="shadowSpreadOuter1" result="shadowOffsetOuter1"></feOffset>
            <feGaussianBlur stdDeviation="15" in="shadowOffsetOuter1" result="shadowBlurOuter1"></feGaussianBlur>
            <feColorMatrix values="0 0 0 0 0.768627451   0 0 0 0 0.682352941   0 0 0 0 0.890196078  0 0 0 1 0" type="matrix" in="shadowBlurOuter1"></feColorMatrix>
        </filter>
        <linearGradient x1="50%" y1="0%" x2="50%" y2="100%" id="linearGradient-3">
            <stop stop-color="#702DFE" offset="0%"></stop>
            <stop stop-color="#EF8877" offset="100%"></stop>
        </linearGradient>
    </defs>
    <g id="circle2" stroke="none" stroke-width="1" fill="none" fill-rule="evenodd">
        <rect fill="#FFFFFF" x="0" y="0" width="105" height="120"></rect>
        <rect id="Rectangle" fill="#FFFFFF" x="0" y="0" width="105" height="120"></rect>
        <g id="Group" transform="translate(12.000000, 16.000000)">
            <g id="Oval">
                <use fill="black" fill-opacity="1" filter="url(#filter-2)" xlink:href="#path-1"></use>
                <use fill="#E8ECF0" fill-rule="evenodd" xlink:href="#path-1"></use>
            </g>
            <path d="M35.1884817,0 C60.4866094,0 81,20.1441557 81,44.999909 C81,69.8556912 60.4865798,90 35.1884817,90 C32.8752471,90 31,88.1526935 31,85.8739255 C31,83.6222857 32.8308641,81.7918956 35.1060548,81.748634 L35.1884817,81.747851 C55.8659993,81.747851 72.6230366,65.292334 72.6230366,44.999909 C72.6230366,24.9104482 56.1995047,8.5816402 35.8076194,8.25707299 L35.1884817,8.252149 C32.8752471,8.252149 31,6.40484252 31,4.1260745 C31,1.84730648 32.8752471,0 35.1884817,0 Z" id="Stroke-3" fill="url(#linearGradient-3)" fill-rule="nonzero"></path>
            <path d="M25.8967021,55 C26.6923776,55 27.3826656,54.8493654 27.9675661,54.5480962 C28.5524666,54.246827 29.0016807,53.8230906 29.3152085,53.2768871 C29.6287363,52.7306836 29.7855001,52.1122244 29.7855001,51.4215097 C29.7855001,50.2850145 29.4746071,49.4008016 28.8528209,48.7688711 C28.2310348,48.1369405 27.3721268,47.8209753 26.276097,47.8209753 C25.6648496,47.8209753 25.0878532,47.9556892 24.5451077,48.2251169 L24.5451077,48.2251169 L24.8296539,45.9251837 L29.4061052,45.9251837 L29.4061052,44.1543086 L22.9563914,44.1543086 L22.2924503,49.5918504 L24.1103843,50.010688 L24.331698,49.8196393 C24.6689379,49.5551102 25.1089307,49.4228457 25.6516762,49.4228457 C26.2418461,49.4228457 26.697647,49.5845023 27.0190788,49.9078156 C27.3405106,50.2311289 27.5012265,50.6965041 27.5012265,51.3039412 C27.5012265,51.9358717 27.3615881,52.4245157 27.0823113,52.7698731 C26.8030344,53.1152305 26.4051967,53.2879092 25.888798,53.2879092 C25.4250931,53.2879092 25.0496502,53.1642173 24.7624693,52.9168337 C24.4752885,52.66945 24.3079858,52.322868 24.2605615,51.8770875 L24.2605615,51.8770875 L22,51.8770875 C22.0210775,52.4845246 22.2041882,53.0258294 22.5493322,53.501002 C22.8944762,53.9761746 23.3647679,54.3448007 23.9602071,54.6068804 C24.5556464,54.8689601 25.2011447,55 25.8967021,55 Z M34.6148814,54.8530394 L39.0648678,45.3446894 L39.0648678,44.1543086 L30.939493,44.1543086 L30.939493,45.8737475 L36.6620333,45.8737475 L32.2041428,54.8530394 L34.6148814,54.8530394 Z M43.0010902,48.9746159 C43.744072,48.9746159 44.3447806,48.7737698 44.8032161,48.3720775 C45.2616517,47.9703852 45.4908694,47.4388778 45.4908694,46.7775551 L45.4908694,46.7775551 L45.4908694,46.248497 C45.4908694,45.5577822 45.2616517,45.010354 44.8032161,44.6062124 C44.3447806,44.2020708 43.7388026,44 42.9852821,44 C42.2423004,44 41.6415917,44.2045202 41.1831562,44.6135605 C40.7247206,45.0226008 40.4955029,45.5553329 40.4955029,46.2117568 L40.4955029,46.2117568 L40.4955029,46.7334669 C40.4955029,47.419283 40.726038,47.9642619 41.1871082,48.3684035 C41.6481784,48.7725451 42.2528391,48.9746159 43.0010902,48.9746159 Z M43.4516217,54.0521042 L49.0714091,45.6900468 L47.9569365,45.1315965 L42.3371491,53.493654 L43.4516217,54.0521042 Z M43.0010902,47.754843 C42.7060053,47.754843 42.4675661,47.665442 42.2857727,47.4866399 C42.1039793,47.3078379 42.0130826,47.0714763 42.0130826,46.7775551 L42.0130826,46.7775551 L42.0130826,46.241149 C42.0130826,45.9227344 42.1026619,45.674126 42.2818207,45.495324 C42.4609794,45.3165219 42.6954665,45.2271209 42.9852821,45.2271209 C43.2909058,45.2271209 43.5306623,45.3177466 43.7045516,45.498998 C43.878441,45.6802494 43.9653857,45.9178357 43.9653857,46.2117568 L43.9653857,46.2117568 L43.9653857,46.755511 C43.9653857,47.0592296 43.878441,47.3017145 43.7045516,47.4829659 C43.5306623,47.6642173 43.2961752,47.754843 43.0010902,47.754843 Z M48.5102208,55 C49.2637413,55 49.8670846,54.7979292 50.3202507,54.3937876 C50.7734169,53.989646 51,53.4593632 51,52.8029392 L51,52.8029392 L51,52.2738811 C51,51.573369 50.7694649,51.0234914 50.3083947,50.6242485 C49.8473244,50.2250056 49.2426638,50.0253841 48.4944126,50.0253841 C47.7567003,50.0253841 47.1559916,50.2274549 46.6922867,50.6315965 C46.2285818,51.0357381 45.9967294,51.5684703 45.9967294,52.2297929 L45.9967294,52.2297929 L45.9967294,52.7735471 C45.9967294,53.4446671 46.2259471,53.9835226 46.6843827,54.3901136 C47.1428182,54.7967045 47.7514309,55 48.5102208,55 Z M48.5102208,53.7802271 C48.2256746,53.7802271 47.9885527,53.6847027 47.7988553,53.493654 C47.6091578,53.3026052 47.5143091,53.072367 47.5143091,52.8029392 L47.5143091,52.8029392 L47.5143091,52.251837 C47.5143091,51.9432198 47.6038884,51.6995101 47.7830472,51.5207081 C47.9622059,51.341906 48.1993277,51.252505 48.4944126,51.252505 C48.7894976,51.252505 49.0266194,51.341906 49.2057781,51.5207081 C49.3849369,51.6995101 49.4745162,51.9358717 49.4745162,52.2297929 L49.4745162,52.2297929 L49.4745162,52.7882432 C49.4745162,53.4495658 49.1530844,53.7802271 48.5102208,53.7802271 Z" id="57%" fill="#304254" fill-rule="nonzero"></path>
        </g>
        <text id="Goal" font-family="IBMPlexSerif-Medium, IBM Plex Serif" font-size="7" font-weight="400" fill="#798999">
            <tspan x="40.3385" y="54">Goal</tspan>
        </text>
    </g>
</svg>
